src/ClientApp/src/assets/code4RoGrey.svg

<svg width="145" height="44" viewBox="0 0 145 44" fill="none"
    xmlns="http://www.w3.org/2000/svg">
    <path d="M17.69 0.902344L11.4187 1.84082L0 22.018L11.4187 42.1591L17.69 43.0976L5.51 22.018L17.69 0.902344ZM33.7125 0.902344L39.9837 1.84082L51.4025 22.018L39.9837 42.1591L33.7125 43.0976L45.8925 22.018L33.7125 0.902344Z" fill="#BBBBBB"/>
    <path d="M17.6901 0.902379L25.7014 0V22.018H5.51013L17.6901 0.902379Z" fill="#F7F7F7"/>
    <path d="M17.6901 43.0975L25.7014 43.9999V22.0179H5.51013L17.6901 43.0975Z" fill="#EDEDED"/>
    <path d="M33.7125 43.0975L25.7013 43.9999V22.0179H45.8925L33.7125 43.0975Z" fill="#D9D9D9"/>
    <path d="M33.7125 0.902379L25.7013 0V22.018H45.8925L33.7125 0.902379Z" fill="#F2F2F2"/>
    <path d="M72.5725 18.4447C71.1946 18.7718 69.7839 18.9413 68.3675 18.9501C67.3464 18.9897 66.3267 18.8429 65.3587 18.5169C64.6254 18.2214 64.0039 17.7037 63.5825 17.037C63.1359 16.3051 62.8287 15.4976 62.6762 14.6547C62.5159 13.5189 62.4432 12.3726 62.4587 11.2257C62.4587 8.33809 62.8575 6.31676 63.6912 5.19781C64.525 4.07886 66.0112 3.46525 68.1862 3.46525C69.6791 3.50052 71.163 3.70641 72.6087 4.07886L72.5 6.49724C71.3009 6.30318 70.0895 6.19462 68.875 6.17238C67.8962 6.17238 67.2075 6.31676 66.8087 6.56943C66.41 6.8221 66.0837 7.29133 65.9025 8.01324C65.7212 8.73514 65.5762 9.96238 65.5762 11.6949C65.5762 13.4275 65.7937 14.6187 66.1925 15.3045C66.5912 15.9903 67.425 16.279 68.6212 16.279C69.9198 16.2854 71.2168 16.1889 72.5 15.9903L72.5725 18.4447ZM75.1825 8.95171C75.98 7.94105 77.285 7.43571 79.0975 7.43571C80.91 7.43571 82.215 7.94105 83.0125 8.95171C83.81 9.96237 84.2087 11.3701 84.2087 13.1748C84.2087 17.037 82.505 18.9501 79.0975 18.9501C75.69 18.9501 74.0225 17.037 74.0225 13.1748C74.0225 11.3701 74.4212 9.96237 75.1825 8.95171ZM77.5025 15.6654C77.7925 16.2068 78.3362 16.4595 79.0975 16.4595C79.8587 16.4595 80.4387 16.2068 80.7287 15.6654C81.0815 14.884 81.243 14.0305 81.2 13.1748C81.2472 12.3306 81.0853 11.4877 80.7287 10.7204C80.4387 10.215 79.895 9.92628 79.0975 9.92628C78.7839 9.89901 78.4688 9.95878 78.1873 10.0989C77.9057 10.2391 77.6687 10.4542 77.5025 10.7204C77.1762 11.2257 77.0312 12.0559 77.0312 13.1748C77.0312 14.2938 77.1762 15.124 77.5025 15.6654ZM95.7362 3.28477V18.6974H92.8V18.2282C91.9736 18.6714 91.0555 18.9185 90.1175 18.9501C88.5225 18.9501 87.3987 18.5169 86.7825 17.5785C86.1662 16.64 85.84 15.1962 85.84 13.1748C85.84 11.1535 86.2025 9.7458 86.9637 8.80733C87.725 7.86886 88.8487 7.43571 90.4075 7.43571C91.0648 7.45517 91.7194 7.5276 92.365 7.65229L92.8 7.76057V3.28477H95.7362ZM92.4737 16.0625L92.8 15.9903V10.215C92.0824 10.0819 91.3548 10.0095 90.625 9.99847C89.4287 9.99847 88.8487 11.0452 88.8487 13.1748C88.8487 14.2938 88.9575 15.124 89.2475 15.5932C89.3647 15.832 89.5527 16.0292 89.7861 16.1583C90.0194 16.2874 90.2869 16.3421 90.5525 16.3151C91.2012 16.3152 91.8472 16.2302 92.4737 16.0625ZM101.464 15.9181C101.885 16.249 102.414 16.4158 102.95 16.3873C104.327 16.3873 105.524 16.3151 106.611 16.2429L107.227 16.1707V18.3365C105.738 18.7425 104.204 18.9607 102.66 18.9862C100.992 18.9862 99.76 18.5169 99.035 17.6506C98.31 16.7844 97.9112 15.3406 97.9112 13.3553C97.9112 9.42095 99.5062 7.43571 102.769 7.43571C106.031 7.43571 107.59 9.09609 107.59 12.4168L107.372 14.4743H100.92C100.895 14.7402 100.931 15.0082 101.025 15.2583C101.12 15.5083 101.269 15.7339 101.464 15.9181ZM104.726 12.2003C104.726 11.334 104.581 10.7204 104.291 10.3594C104.037 10.0346 103.53 9.85409 102.841 9.85409C102.152 9.85409 101.645 10.0346 101.355 10.3955C101.065 10.7565 100.92 11.3701 100.884 12.2003H104.726ZM118.102 10.215V18.6974H115.13V10.215H113.97V7.68838H115.13V7.21914C115.13 5.63096 115.384 4.5481 115.855 3.93448C116.326 3.32087 117.16 3.0321 118.392 3.0321C119.074 3.04909 119.753 3.12152 120.422 3.24868L120.894 3.32087V5.73924L119.262 5.66705C119.093 5.64977 118.923 5.67358 118.765 5.73645C118.607 5.79932 118.467 5.89936 118.356 6.028C118.183 6.41303 118.109 6.83457 118.139 7.25524V7.68838H120.821V10.215H118.102ZM123.032 8.95171C123.794 7.94105 125.099 7.43571 126.911 7.43571C128.724 7.43571 130.065 7.94105 130.826 8.95171C131.587 9.96237 132.022 11.3701 132.022 13.1748C132.022 17.037 130.319 18.9501 126.911 18.9501C123.504 18.9501 121.836 17.037 121.836 13.1748C121.836 11.3701 122.235 9.96237 123.032 8.95171ZM125.316 15.6654C125.606 16.2068 126.15 16.4595 126.911 16.4595C127.672 16.4595 128.252 16.2068 128.542 15.6654C128.832 15.124 129.014 14.2938 129.014 13.1748C129.014 12.0559 128.869 11.2257 128.542 10.7204C128.216 10.215 127.709 9.96238 126.911 9.96238C126.114 9.96238 125.606 10.215 125.316 10.7204C125.026 11.2257 124.845 12.0559 124.845 13.1748C124.845 14.2938 124.99 15.124 125.316 15.6654ZM134.161 18.6974V7.68838H137.097V8.87952C138.184 8.18821 139.388 7.69901 140.65 7.43571V10.3955C139.609 10.6034 138.58 10.8685 137.569 11.1896L137.134 11.334V18.6974H134.161ZM66.0837 35.6982V40.7155H63.0387V25.736H68.875C72.4275 25.736 74.1675 27.3963 74.1675 30.681C74.1675 32.6301 73.4425 34.0739 71.9562 34.9763L74.095 40.7155H70.76L69.02 35.6982H66.0837ZM70.5425 32.4497C70.9083 31.9345 71.0873 31.3108 71.05 30.681C71.0815 30.0685 70.8882 29.4656 70.5062 28.9845C70.3022 28.7594 70.0491 28.5837 69.7663 28.4711C69.4836 28.3585 69.1786 28.3119 68.875 28.3348H66.0837V33.0994H68.9112C69.2149 33.1223 69.5198 33.0757 69.8026 32.9631C70.0854 32.8505 70.3385 32.6748 70.5425 32.4497ZM76.8862 30.9337C77.6837 29.9591 78.9887 29.4538 80.8012 29.4538C82.6137 29.4538 83.955 29.9591 84.7162 30.9337C85.4775 31.9082 85.8762 33.352 85.8762 35.1929C85.8762 39.0551 84.2087 40.9681 80.8012 40.9681C77.3937 40.9681 75.7262 39.0551 75.7262 35.1929C75.7262 33.352 76.125 31.9443 76.8862 30.9337ZM79.17 37.6835C79.3477 37.947 79.5921 38.1591 79.8785 38.2986C80.1649 38.438 80.4832 38.4997 80.8012 38.4775C81.5987 38.4775 82.1425 38.1888 82.4325 37.6835C82.7852 36.9021 82.9467 36.0485 82.9037 35.1929C82.951 34.337 82.7893 33.4824 82.4325 32.7023C82.1425 32.197 81.5987 31.9443 80.8012 31.9443C80.4861 31.9145 80.1688 31.9691 79.882 32.1023C79.5952 32.2356 79.3494 32.4427 79.17 32.7023C78.88 33.2437 78.735 34.0378 78.735 35.1929C78.735 36.3479 78.88 37.142 79.17 37.6835ZM91.0237 40.7155H88.0512V29.7064H90.9875V30.32C91.7699 29.8162 92.6679 29.5181 93.5975 29.4538C94.7937 29.4538 95.7 29.7786 96.3525 30.4644C97.5012 29.8432 98.7797 29.4971 100.086 29.4538C101.536 29.4538 102.551 29.8508 103.131 30.7171C103.711 31.5834 103.965 32.8828 103.965 34.7597V40.7155H100.992V34.8319C101.039 34.1218 100.94 33.4096 100.702 32.7384C100.587 32.5189 100.407 32.3393 100.187 32.2233C99.9674 32.1073 99.7173 32.0604 99.47 32.0887C98.8803 32.1137 98.2959 32.2107 97.73 32.3775L97.4037 32.4858C97.4762 33.6047 97.5125 34.4349 97.5125 35.0124V40.7155H94.54V35.0485C94.5755 34.2677 94.4774 33.4865 94.25 32.7384C94.0687 32.3053 93.6337 32.0887 92.9812 32.0887C92.4017 32.0969 91.827 32.1943 91.2775 32.3775L91.0237 32.4858V40.7155ZM115.057 33.1355V37.7196C115.055 37.9716 115.118 38.2201 115.239 38.4415C115.298 38.5305 115.379 38.6034 115.474 38.6538C115.569 38.7042 115.675 38.7304 115.782 38.7302L115.71 40.9681C115.102 40.988 114.494 40.9396 113.897 40.8237C113.419 40.6955 112.966 40.488 112.556 40.2101C111.538 40.6997 110.424 40.9586 109.294 40.9681C107.01 40.9681 105.85 39.777 105.85 37.3586C105.85 36.1795 106.176 35.3493 106.829 34.868C107.445 34.3627 108.424 34.0739 109.729 34.0017L112.085 33.8213V33.1355C112.102 32.9677 112.085 32.7982 112.035 32.637C111.985 32.4758 111.904 32.3262 111.795 32.197C111.496 31.9988 111.137 31.9096 110.78 31.9443L106.647 32.1248L106.539 30.0674C108.001 29.652 109.513 29.4335 111.034 29.4177C112.484 29.4177 113.499 29.7425 114.115 30.32C114.731 30.8976 115.057 31.836 115.057 33.1355ZM110.091 36.0592C109.257 36.1314 108.859 36.5645 108.859 37.3586C108.859 38.1527 109.221 38.5858 109.946 38.5858C110.561 38.5697 111.17 38.4726 111.759 38.2971L112.085 38.2249V35.8787L110.091 36.0592ZM120.857 40.7155H117.885V29.7064H120.821V30.32C121.648 29.7971 122.598 29.4985 123.576 29.4538C125.075 29.4538 126.09 29.8869 126.621 30.7532C127.201 31.6195 127.491 32.955 127.491 34.7236V40.7155H124.519V34.8319C124.556 34.1191 124.445 33.4063 124.192 32.7384C123.975 32.3053 123.504 32.0887 122.851 32.0887C122.258 32.0724 121.667 32.1704 121.111 32.3775L120.857 32.4858V40.7155ZM130.101 28.2987V25.3028H133.074V28.2987H130.101ZM130.101 40.7155V29.7064H133.074V40.7155H130.101ZM144.275 33.1355V37.7196C144.273 37.9716 144.335 38.2201 144.456 38.4415C144.516 38.5305 144.597 38.6034 144.692 38.6538C144.787 38.7042 144.892 38.7304 145 38.7302L144.927 40.9681C144.32 40.988 143.712 40.9396 143.115 40.8237C142.625 40.696 142.16 40.4887 141.737 40.2101C140.733 40.7026 139.63 40.9618 138.511 40.9681C136.227 40.9681 135.067 39.777 135.067 37.3586C135.067 36.1675 135.394 35.3373 136.01 34.868C136.626 34.3988 137.641 34.0739 138.946 34.0017L141.302 33.8213V33.1355C141.319 32.9677 141.303 32.7982 141.253 32.637C141.203 32.4758 141.121 32.3262 141.012 32.197C140.713 31.9988 140.355 31.9096 139.997 31.9443L135.865 32.1248L135.756 30.0674C137.219 29.652 138.73 29.4335 140.251 29.4177C141.701 29.4177 142.716 29.7425 143.332 30.32C143.949 30.8976 144.275 31.836 144.275 33.1355ZM139.309 36.0592C138.475 36.1314 138.076 36.5645 138.076 37.3586C138.076 38.1527 138.439 38.5858 139.127 38.5858C139.754 38.5729 140.376 38.4758 140.976 38.2971L141.302 38.2249V35.8787L139.309 36.0592Z" fill="#BBBBBB"/>
</svg>

<svg width="145" height="44" fill="none" xmlns="http://www.w3.org/2000/svg"><path d="M17.69.902l-6.271.939L0 22.018l11.419 20.141 6.271.939-12.18-21.08L17.69.902zm16.022 0l6.272.939 11.419 20.177-11.42 20.141-6.27.939 12.18-21.08L33.712.902z" fill="#BBB"/><path d="M17.69.902L25.701 0v22.018H5.511L17.69.902z" fill="#F7F7F7"/><path d="M17.69 43.097l8.011.903V22.018H5.511l12.18 21.08z" fill="#EDEDED"/><path d="M33.712 43.097l-8.01.903V22.018h20.19l-12.18 21.08z" fill="#D9D9D9"/><path d="M33.712.902L25.703 0v22.018h20.19L33.712.902z" fill="#F2F2F2"/><path d="M72.573 18.445a18.709 18.709 0 01-4.205.505 8.407 8.407 0 01-3.01-.433 3.766 3.766 0 01-1.776-1.48 6.948 6.948 0 01-.906-2.382 22.373 22.373 0 01-.217-3.43c0-2.887.398-4.908 1.232-6.027.834-1.12 2.32-1.733 4.495-1.733 1.493.036 2.977.241 4.423.614L72.5 6.497c-1.2-.194-2.41-.302-3.625-.325-.979 0-1.668.145-2.066.397-.399.253-.725.722-.906 1.444-.182.722-.327 1.95-.327 3.682s.218 2.924.617 3.61c.398.685 1.232.974 2.428.974 1.299.006 2.596-.09 3.879-.289l.073 2.455zm2.61-9.493c.797-1.011 2.102-1.516 3.914-1.516 1.813 0 3.118.505 3.916 1.516.797 1.01 1.196 2.418 1.196 4.223 0 3.862-1.704 5.775-5.112 5.775-3.407 0-5.075-1.913-5.075-5.775 0-1.805.4-3.213 1.16-4.223zm2.32 6.713c.29.542.833.794 1.594.794.762 0 1.342-.252 1.632-.794a5.394 5.394 0 00.471-2.49 5.142 5.142 0 00-.471-2.455c-.29-.505-.834-.794-1.632-.794a1.71 1.71 0 00-1.594.794c-.327.506-.472 1.336-.472 2.455s.145 1.949.471 2.49zm18.233-12.38v15.412H92.8v-.469a6.112 6.112 0 01-2.682.722c-1.596 0-2.72-.433-3.335-1.372-.617-.938-.943-2.382-.943-4.403 0-2.022.362-3.43 1.124-4.368.761-.938 1.885-1.371 3.444-1.371.657.02 1.311.092 1.957.216l.435.109V3.285h2.936zm-3.262 12.777l.326-.072v-5.775a13.004 13.004 0 00-2.175-.217c-1.196 0-1.776 1.047-1.776 3.177 0 1.119.108 1.949.398 2.418a1.301 1.301 0 001.305.722c.65 0 1.295-.085 1.922-.253zm8.99-.144c.421.331.95.498 1.486.47 1.377 0 2.574-.073 3.661-.145l.616-.072v2.166a18.522 18.522 0 01-4.567.65c-1.668 0-2.9-.47-3.625-1.336-.725-.867-1.124-2.31-1.124-4.296 0-3.934 1.595-5.92 4.858-5.92 3.262 0 4.821 1.661 4.821 4.982l-.218 2.057h-6.452a1.76 1.76 0 00.544 1.444zm3.262-3.718c0-.866-.145-1.48-.435-1.84-.254-.325-.761-.506-1.45-.506s-1.196.18-1.486.542c-.29.36-.435.974-.471 1.804h3.842zm13.376-1.985v8.482h-2.972v-8.482h-1.16V7.688h1.16V7.22c0-1.588.254-2.67.725-3.285.471-.613 1.305-.902 2.537-.902.682.017 1.361.09 2.03.217l.472.072v2.418l-1.632-.072a1.053 1.053 0 00-.906.361 2.55 2.55 0 00-.217 1.227v.433h2.682v2.527h-2.719zm4.93-1.263c.762-1.011 2.067-1.516 3.879-1.516 1.813 0 3.154.505 3.915 1.516.761 1.01 1.196 2.418 1.196 4.223 0 3.862-1.703 5.775-5.111 5.775-3.407 0-5.075-1.913-5.075-5.775 0-1.805.399-3.213 1.196-4.223zm2.284 6.713c.29.542.834.794 1.595.794s1.341-.252 1.631-.794c.29-.541.472-1.371.472-2.49 0-1.12-.145-1.95-.472-2.455-.326-.505-.833-.758-1.631-.758-.797 0-1.305.253-1.595.758-.29.506-.471 1.336-.471 2.455s.145 1.949.471 2.49zm8.845 3.032V7.688h2.936V8.88a10.69 10.69 0 013.553-1.444v2.96c-1.041.207-2.07.472-3.081.794l-.435.144v7.363h-2.973zM66.084 35.698v5.017h-3.045V25.736h5.836c3.552 0 5.293 1.66 5.293 4.945 0 1.95-.726 3.393-2.212 4.295l2.139 5.74H70.76l-1.74-5.018h-2.936zm4.459-3.248a2.772 2.772 0 00.507-1.769 2.52 2.52 0 00-.544-1.697 1.994 1.994 0 00-1.631-.65h-2.791V33.1h2.827a2.003 2.003 0 001.632-.65zm6.343-1.516c.798-.975 2.103-1.48 3.915-1.48 1.813 0 3.154.505 3.915 1.48.762.974 1.16 2.418 1.16 4.259 0 3.862-1.667 5.775-5.075 5.775-3.407 0-5.075-1.913-5.075-5.775 0-1.841.399-3.249 1.16-4.26zm2.284 6.75a1.81 1.81 0 001.631.794c.798 0 1.341-.29 1.632-.794a5.395 5.395 0 00.47-2.491 5.286 5.286 0 00-.47-2.49c-.29-.506-.834-.759-1.632-.759a1.784 1.784 0 00-1.631.758c-.29.542-.435 1.336-.435 2.49 0 1.156.145 1.95.435 2.492zm11.854 3.032H88.05v-11.01h2.936v.614a5.526 5.526 0 012.61-.866c1.197 0 2.103.325 2.756 1.01a8.437 8.437 0 013.733-1.01c1.45 0 2.465.397 3.045 1.263.58.866.834 2.166.834 4.043v5.956h-2.973v-5.884a5.23 5.23 0 00-.29-2.094 1.227 1.227 0 00-1.232-.65 7.24 7.24 0 00-1.74.29l-.326.108c.072 1.119.109 1.949.109 2.526v5.703H94.54v-5.667a6.87 6.87 0 00-.29-2.31c-.181-.433-.616-.65-1.269-.65a5.64 5.64 0 00-1.703.29l-.254.108v8.23zm24.033-7.58v4.584c-.002.252.061.5.182.721a.643.643 0 00.543.29l-.072 2.237a8.118 8.118 0 01-1.813-.144 4.44 4.44 0 01-1.341-.614 7.676 7.676 0 01-3.262.758c-2.284 0-3.444-1.191-3.444-3.61 0-1.178.326-2.009.979-2.49.616-.505 1.595-.794 2.9-.866l2.356-.18v-.687a1.255 1.255 0 00-.29-.938 1.564 1.564 0 00-1.015-.253l-4.133.18-.108-2.057a17.098 17.098 0 014.495-.65c1.45 0 2.465.325 3.081.903.616.578.942 1.516.942 2.816zm-4.966 2.923c-.834.072-1.232.506-1.232 1.3s.362 1.227 1.087 1.227a6.986 6.986 0 001.813-.289l.326-.072v-2.346l-1.994.18zm10.766 4.657h-2.972v-11.01h2.936v.614a5.638 5.638 0 012.755-.866c1.499 0 2.514.433 3.045 1.3.58.865.87 2.201.87 3.97v5.992h-2.972v-5.884a5.155 5.155 0 00-.327-2.094c-.217-.433-.688-.65-1.341-.65a4.622 4.622 0 00-1.74.29l-.254.108v8.23zm9.244-12.417v-2.996h2.973v2.996h-2.973zm0 12.416V29.706h2.973v11.01h-2.973zm14.174-7.58v4.585c-.002.252.06.5.181.721a.654.654 0 00.544.29l-.073 2.237a8.114 8.114 0 01-1.812-.144 4.625 4.625 0 01-1.378-.614 7.42 7.42 0 01-3.226.758c-2.284 0-3.444-1.191-3.444-3.61 0-1.19.327-2.02.943-2.49.616-.47 1.631-.794 2.936-.866l2.356-.18v-.687a1.255 1.255 0 00-.29-.938 1.563 1.563 0 00-1.015-.253l-4.132.18-.109-2.057a17.104 17.104 0 014.495-.65c1.45 0 2.465.325 3.081.903.617.578.943 1.516.943 2.816zm-4.966 2.924c-.834.072-1.233.506-1.233 1.3s.363 1.227 1.051 1.227a6.981 6.981 0 001.849-.289l.326-.072v-2.346l-1.993.18z" fill="#BBB"/></svg>
